public/images/cloud.svg

<svg preserveAspectRatio="none" width="100%" height="100%" overflow="visible" style="display: block;" viewBox="0 0 105 53" fill="none" xmlns="http://www.w3.org/2000/svg">
<g id="Vector">
<path d="M46.8072 33.4405C46.8072 42.849 36.3291 50.4762 23.4036 50.4762C10.4782 50.4762 0 42.849 0 33.4405C0 24.0319 10.4782 16.4048 23.4036 16.4048C36.3291 16.4048 46.8072 24.0319 46.8072 33.4405Z" fill="var(--fill-0, white)"/>
<path d="M78.4337 17.0357C78.4337 26.4443 65.9732 34.0714 50.6024 34.0714C35.2316 34.0714 22.7711 26.4443 22.7711 17.0357C22.7711 7.62715 35.2316 0 50.6024 0C65.9732 0 78.4337 7.62715 78.4337 17.0357Z" fill="var(--fill-0, white)"/>
<path d="M105 23.9762C105 33.7332 94.5218 41.6429 81.5964 41.6429C68.6709 41.6429 58.1928 33.7332 58.1928 23.9762C58.1928 14.2192 68.6709 6.30952 81.5964 6.30952C94.5218 6.30952 105 14.2192 105 23.9762Z" fill="var(--fill-0, white)"/>
<path d="M80.9639 35.9643C80.9639 45.3728 70.4857 53 57.5602 53C44.6348 53 34.1566 45.3728 34.1566 35.9643C34.1566 26.5557 44.6348 18.9286 57.5602 18.9286C70.4857 18.9286 80.9639 26.5557 80.9639 35.9643Z" fill="var(--fill-0, white)"/>
</g>
</svg>

<svg xmlns="http://www.w3.org/2000/svg" fill="none" overflow="visible" preserveAspectRatio="none" style="display:block" viewBox="0 0 105 53"><g fill="var(--fill-0, white)"><path d="M46.807 33.44c0 9.409-10.478 17.036-23.403 17.036C10.478 50.476 0 42.85 0 33.441c0-9.41 10.478-17.036 23.404-17.036s23.403 7.627 23.403 17.036"/><path d="M78.434 17.036c0 9.408-12.46 17.035-27.832 17.035-15.37 0-27.83-7.627-27.83-17.035S35.231 0 50.601 0s27.832 7.627 27.832 17.036"/><path d="M105 23.976c0 9.757-10.478 17.667-23.404 17.667s-23.403-7.91-23.403-17.667S68.67 6.31 81.596 6.31 105 14.22 105 23.976"/><path d="M80.964 35.964C80.964 45.373 70.486 53 57.56 53s-23.403-7.627-23.403-17.036c0-9.408 10.478-17.035 23.403-17.035 12.926 0 23.404 7.627 23.404 17.035"/></g></svg>
